src/assets/duotone/Trello.svg

<svg width="24" height="24" viewBox="0 0 24 24"  xmlns="http://www.w3.org/2000/svg">
<path opacity="0.4" d="M16.1898 2H7.81976C4.17976 2 2.00977 4.17 2.00977 7.81V16.18C2.00977 19.82 4.17976 21.99 7.81976 21.99H16.1898C19.8298 21.99 21.9998 19.82 21.9998 16.18V7.81C21.9998 4.17 19.8298 2 16.1898 2Z" />
<path d="M9.54987 17.7188H7.09985C6.42985 17.7188 5.87988 17.1688 5.87988 16.4988V7.51882C5.87988 6.84882 6.42985 6.29883 7.09985 6.29883H9.54987C10.2199 6.29883 10.7699 6.84882 10.7699 7.51882V16.4988C10.7699 17.1688 10.2199 17.7188 9.54987 17.7188Z" />
<path d="M17.1398 13.6293H14.1998C13.6598 13.6293 13.2197 13.1893 13.2197 12.6493V7.2593C13.2197 6.7193 13.6598 6.2793 14.1998 6.2793H17.1398C17.6798 6.2793 18.1198 6.7193 18.1198 7.2593V12.6493C18.1198 13.1893 17.6798 13.6293 17.1398 13.6293Z" />
</svg>

<?xml version="1.0" encoding="UTF-8"?>
<svg width="24" height="24" viewBox="0 0 24 24" xmlns="http://www.w3.org/2000/svg">
 <path d="m16.19 2h-8.37c-3.64 0-5.81 2.17-5.81 5.81v8.37c0 3.64 2.17 5.81 5.81 5.81h8.37c3.64 0 5.81-2.17 5.81-5.81v-8.37c0-3.64-2.17-5.81-5.81-5.81z" opacity=".4"/>
 <path d="m9.5499 17.719h-2.45c-0.67 0-1.22-0.55-1.22-1.22v-8.98c0-0.67 0.54997-1.22 1.22-1.22h2.45c0.67003 0 1.22 0.54999 1.22 1.22v8.98c0 0.67-0.55 1.22-1.22 1.22z"/>
 <path d="m17.14 13.629h-2.94c-0.54 0-0.9801-0.44-0.9801-0.98v-5.39c0-0.54 0.4401-0.98 0.9801-0.98h2.94c0.54 0 0.98 0.44 0.98 0.98v5.39c0 0.54-0.44 0.98-0.98 0.98z"/>
</svg>
